X:1
T:Signor, ti benedico
T:Giovanni Animuccia
T:Source : Primo libro delle Laude spirituali a tre voci---Roma---A.Gardano---1583. Editor : André Vierendeels (20/11/17). Notes : Original clefs : C1, C2, C4 Editorial accidentals above the staff 
T:Signor, ti benedico
T:©
T:©
C:Giovanni Animuccia
Z:©
%%score [ 1 2 3 ]
L:1/8
Q:1/4=120
M:2/2
K:C
V:1 treble nm="Soprano" snm="S"
V:2 treble nm="Alto" snm="A"
V:3 treble-8 nm="Tenor" snm="T"
V:1
"^1)" E4 E4- | E2 E2 E2 E2 | E4 E4 | z2 A2 A2 A2 | F2 G2 E4 |[M:2/4] D4 :: A4 |[M:4/4] B4 G2 G2- | %8
w: Si- gnor,|_ ti be- ne-|di- co,|Si- gnor, lau-|de'a te di-|co,|che|men- tre- ra|
w: Mio a-|* ver- sa- rio|fie- ro,|del- le me|spo- glie'al- tie-|ro,|m'ha-|vea fe- ri-|
 G2 G2 A4 | B4 z2 c2 | c2 _B2 A2 A2 | G4 F4 | E8 | A6 A2 | F2 E2 D4 | D4 z2 A2 | A2 A2 B4 | %17
w: _ ca- du-|to, cor-|re- sti'à dar- mi'a-|iu- to,|O|sin- go-|lar bon- ta-|de, c'heb-|be di me|
w: * to'e vin-|to, e|po- co men ch'es-|tin- to,|O|man pie-|to- sa'et for-|te, che|mi cam- po|
 c4 d4- | d4 ^c4 | z2 A2 A2 A2 | G2 F2 E4 | D8 :| %22
w: pie- ta-|* de,|c'heb- be di|me pie- ta-|de.|
w: da mor-|* te,|che mi cam-|po da mor-|te.|
V:2
"^2)""^1)" C4 C4- | C2 C2 C2 C2 | C4 C4 | z2 F2 F2 F2 |"^#" D2 D2 C4 |[M:2/4] D4 :: ^F4 | %7
w: Si- gnor,|_ ti be- ne-|di- co,|Si- gnor, lau-|de'a te di-|co,|che|
w: Mor- te|_ e- ra vi-|ci- no,|quan- do d'o-|lio'e di vi-|no,|m'un-|
[M:4/4] G4 G2 E2- |"^#" E2 G2 F4 | G4 z2 A2 | F2 D2 F2 F2 | E4 F4 | C8 | F6 F2 | D2 C2 B,4 | %15
w: men- tre- ra|_ ca- du-|to, cor-|re- sti'à dar- m'ia-|iu- to,|O|sin- go-|lar bon- ta-|
w: ge- sti'e mi|_ la- va-|sti, e|le pia- ghe le-|ga- sti,|O|be- ne-|et- ta ma-|
 B,4 z2 ^F2 | ^F2 F2 G4 | E2 A4 GF | G4 A4 | z2 F2 F2 F2 |"^#" E2 D4 C2 | D8 :| %22
w: de, c'heb-|be di me|pie- ta- * *|* de,|c'heb- be di|me pie- ta-|de.|
w: no, del|buon Sa- ma-|ri- ta- * *|* no,|del buon Sa-|ma- ri- ta-|no.|
V:3
"^3)""^1)""^4)""^5)" A4 A4- | A2 A2 A2 A2 | A4 A4 | z2 F2 F2 F2 | _B2 G2 A4 |[M:2/4] D4 :: d4 | %7
w: Si- gnor,|_ ti be- ne-|di- co,|Si- gnor, lau-|de'a te di-|co,|che|
w: L'o- lio|_ fu'il dol- ce'af-|fet- to|del tuo pa-|ter- no pet-|to,|e'l|
w: Rin- gra-|* ti'a- ni- ma|mi- a,|la man po-|ten- t'e pi-|a,|che|
[M:4/4] G4 G2 c2- | c2 e2 d4 | G4 z2 F2 | F2 G2 F2 F2 | c4 F4 | A8 | F6 F2 | F2 F2 G4 | G4 z2 d2 | %16
w: men- tre- ra|_ ca- du-|to, cor-|re- sti'à dar- mi'a-|iu- to,|O|sin- go-|lar bon- ta-|de, c'heb-|
w: vi- no'il pu-|* o san-|gue, ch'u-|sci dal cor- po'e|san- gue,|O|cha- ri-|ta- te'im- men-|sa, che|
w: san- na'o- gni|_ tua pia-|ga, e'o-|gni tua do- gli'ap-|pa- ga,|O|lin- gua'o|sen- si'o co-|re, be-|
 d2 d2 G4 | A4 _B4- | B4 A4 | z2 F2 F2 F2 | C2 D2 A4 | D8 :| %22
w: be di me|pie- ta-|* de,|c'heb- be di|me pie- ta-|de.|
w: tal gra- tie|dis- pen-|* sa,|che tal gra-|tie dis- en-|sa.|
w: ne- di- te'il|Si- gno-|* re,|be- ne di-|te'il Si- gno-|re.|

